src/pos-icons/harddisk-plus.svg

<svg height="24" viewBox="0 0 24 24" width="24" xmlns="http://www.w3.org/2000/svg"><path d="m12 9a1 1 0 1 0 1 1 1 1 0 0 0 -1-1m0 0a1 1 0 1 0 1 1 1 1 0 0 0 -1-1m6-7h-12a2 2 0 0 0 -2 2v9.09a5.47 5.47 0 0 1 1-.09 5.71 5.71 0 0 1 2 .36 6 6 0 1 1 8.71 1.33l-1.92-2.42a1 1 0 0 0 -1.37-.37l-.86.5a1 1 0 0 0 -.37 1.37l.91 2.23a6.12 6.12 0 0 1 -2.1-.38 6 6 0 0 1 .19 6.38h7.81a2 2 0 0 0 2-2v-16a2 2 0 0 0 -2-2m-3.42 17.58-2.49-6.31.86-.5 4.22 5.31m-5.17-7.08a1 1 0 1 0 -1-1 1 1 0 0 0 1 1m-3 9h-3v3h-2v-3h-3v-2h3v-3h2v3h3z"/></svg>

<?xml version="1.0" encoding="UTF-8"?><!DOCTYPE svg PUBLIC "-//W3C//DTD SVG 1.1//EN" "http://www.w3.org/Graphics/SVG/1.1/DTD/svg11.dtd"><svg xmlns="http://www.w3.org/2000/svg" xmlns:xlink="http://www.w3.org/1999/xlink" version="1.1" id="mdi-harddisk-plus" width="24" height="24" viewBox="0 0 24 24"><path d="M12 9A1 1 0 1 0 13 10A1 1 0 0 0 12 9M12 9A1 1 0 1 0 13 10A1 1 0 0 0 12 9M18 2H6A2 2 0 0 0 4 4V13.09A5.47 5.47 0 0 1 5 13A5.71 5.71 0 0 1 7 13.36A6 6 0 1 1 15.71 14.69L13.79 12.27A1 1 0 0 0 12.42 11.9L11.56 12.4A1 1 0 0 0 11.19 13.77L12.1 16A6.12 6.12 0 0 1 10 15.62A6 6 0 0 1 10.19 22H18A2 2 0 0 0 20 20V4A2 2 0 0 0 18 2M14.58 19.58L12.09 13.27L12.95 12.77L17.17 18.08M12 11A1 1 0 1 0 11 10A1 1 0 0 0 12 11M9 20H6V23H4V20H1V18H4V15H6V18H9Z" /></svg>
